libs/ui/packages/crypto-icons/src/svg/ANT.svg

<svg width="24" height="24" viewBox="0 0 24 24" fill="none">
<path d="M5.97375 13.1985C5.96887 13.1193 5.96637 13.0401 5.96625 12.9608C5.96625 10.323 8.02275 8.17875 10.5953 8.08725C10.6567 8.08725 10.7227 8.08725 10.7842 8.0925L10.1707 7.48275C10.1707 7.48275 12.6405 7.07025 15.8115 8.97675C15.8115 8.97675 15.858 9.0735 15.8115 9.35775C15.8115 9.35775 17.3055 9.99825 17.433 11.2432C17.5605 12.4883 16.7685 13.2 16.1287 13.3013C16.1287 13.3013 16.461 12.7882 15.9503 12.5138C15.8389 12.4535 15.7129 12.4255 15.5865 12.4327C14.61 12.4327 14.4975 13.5405 14.4975 13.5405C14.487 13.596 14.487 13.6523 14.487 13.7078C14.487 13.7078 14.3445 15.117 16.6785 15.2828C17.2119 14.5948 17.6792 13.858 18.0743 13.0823C18.6978 11.8592 19.1647 10.5625 19.464 9.22275C18.1042 8.10825 16.5007 7.15275 14.7765 6.3525C14.13 6.0525 13.5038 5.79225 12.9105 5.56875C12.6081 5.45406 12.303 5.34653 11.9955 5.24625C11.754 5.32425 11.448 5.43075 11.0805 5.56875C10.488 5.7915 9.861 6.0525 9.21525 6.3525C7.4925 7.152 5.88825 8.1075 4.5285 9.2235C4.602 9.5775 4.71375 10.0192 4.87425 10.5323C5.16048 11.452 5.52845 12.3443 5.97375 13.1985ZM20.25 8.9265L20.2125 9.1365C20.193 9.29925 20.0602 9.88275 19.8967 10.4415C19.5981 11.4637 19.2041 12.4555 18.72 13.404C18.0405 14.7285 17.2155 15.8835 16.269 16.8345C15.1012 18.0052 13.7498 18.87 12.2438 19.4085L12.1597 19.4385L12 19.5L11.8417 19.4445L11.7533 19.4137C10.2354 18.8687 8.85982 17.9886 7.72875 16.839C6.77775 15.879 5.9535 14.7262 5.27775 13.4085C4.64787 12.1704 4.17183 10.8599 3.86025 9.50625C3.82275 9.33825 3.7815 9.12825 3.789 9.15825L3.75 8.94225L3.84 8.86725L3.906 8.811C5.289 7.647 6.92475 6.64875 8.691 5.8095C9.6851 5.33222 10.709 4.91961 11.7563 4.57425L11.9948 4.5L12.1575 4.54875L12.2385 4.575C13.0485 4.83525 14.1248 5.25 15.3015 5.8095C17.0655 6.64725 18.699 7.644 20.0805 8.80575L20.25 8.92575V8.9265ZM14.5485 9.4695C14.5898 9.44925 14.7225 9.38325 14.8762 9.22575C15.183 9.26625 15.4845 9.363 15.4845 9.363C14.9272 9.02775 14.1645 8.829 13.3207 8.83425C13.3207 8.83425 13.6433 9.29175 14.538 9.47925L14.5485 9.4695Z" fill="#2CD3E1"/>
</svg>

<svg width="24" height="24" viewBox="0 0 24 24" fill="none"><path fill="#2cd3e1" d="M5.974 13.199a4 4 0 0 1-.008-.238c0-2.638 2.057-4.782 4.63-4.874.06 0 .127 0 .188.005l-.613-.61s2.47-.412 5.64 1.495c0 0 .047.096 0 .38 0 0 1.494.641 1.622 1.886s-.665 1.957-1.304 2.058c0 0 .332-.513-.179-.787a.7.7 0 0 0-.364-.081c-.976 0-1.088 1.108-1.088 1.108-.011.055-.011.111-.011.167 0 0-.143 1.409 2.191 1.575a14 14 0 0 0 1.396-2.2 16.3 16.3 0 0 0 1.39-3.86c-1.36-1.115-2.963-2.07-4.687-2.87-.647-.3-1.273-.56-1.866-.784a21 21 0 0 0-.915-.323q-.364.117-.915.323c-.593.223-1.22.484-1.866.784-1.723.799-3.327 1.755-4.686 2.87.073.354.185.796.345 1.31.286.919.654 1.811 1.1 2.665M20.25 8.926l-.038.21c-.019.162-.152.746-.315 1.304a17 17 0 0 1-1.177 2.963c-.68 1.325-1.505 2.48-2.451 3.43a10.8 10.8 0 0 1-4.025 2.575l-.084.03-.16.061-.158-.055-.089-.031a10.7 10.7 0 0 1-4.024-2.575c-.951-.96-1.775-2.113-2.451-3.43A17 17 0 0 1 3.86 9.506a8 8 0 0 1-.071-.348l-.039-.216.09-.075.066-.056C5.289 7.647 6.925 6.649 8.691 5.81q1.493-.717 3.065-1.236l.239-.074.163.049.08.026c.81.26 1.887.675 3.064 1.234 1.764.838 3.397 1.835 4.779 2.997zm-5.701.543c.04-.02.174-.087.327-.244.307.04.609.137.609.137-.558-.335-1.32-.534-2.164-.529 0 0 .322.458 1.217.645z"/></svg>
